X:1
T:Lincolnshire Dance
T:Dame of Honor, The
M:6/8
L:1/8
B:Thomas & Leeder - Singin' Gathering (1939, p. 70)
Z:AK/Fiddler's Companion
K:Bb
B,|D2FD B2d|B2F B2A|G>FE/D/ C2F|D(B,2 B,2) B,|
DEF G2B|A>Bc G2c|c>dc G2B|A(F2 F2) c|
f2e d2c|B2A G2d|e>de G2B|A(F2 F2) E|
DEF G2B|A>Bc F2e|d>ef F2e|d(B2 B2)||

